X: 62
T:Stack of Wheat
M:4/4
L:1/8
R:Hornpipe
K:G
|:BA|GEDE GABG|(3ABA GA Bdef|gedB GABG|dBAG E2 BA|
|GEDE GABG|(3ABA GA Bdef|gedB GABG|AGEFG2:|
|:(3Bcd|edBd edgd|edBde2 (3def|gedB GABG|1dBAG E2(3Bcd|
|edBd edgd|edBd e2(3def|gedB GABG|AGEFG2:|
|2dBAGE2BA|GEDE GABG|(3ABA GA Bdef|gedB GABG|AGEFG2||
